icons/bhi_inactive.svg

<svg xmlns="http://www.w3.org/2000/svg" viewBox="0 0 512 512" enable-background="new 0 0 512 512"><path fill="#010101" d="M128 224.4v63.2h256v-63.2h-256zm130.1-224.4c-140.8 0-258.1 115.2-258.1 256s115.2 256 256 256 256-115.2 256-256-113.1-256-253.9-256zm0 460.8c-113.1 0-204.8-91.7-204.8-204.8s91.8-204.8 204.8-204.8 204.8 91.7 204.8 204.8-91.7 204.8-204.8 204.8z"/></svg>

<?xml version="1.0" encoding="utf-8"?>
<!-- Generator: Adobe Illustrator 19.2.0, SVG Export Plug-In . SVG Version: 6.00 Build 0)  -->
<svg version="1.1" id="Layer_1" xmlns="http://www.w3.org/2000/svg" xmlns:xlink="http://www.w3.org/1999/xlink" x="0px" y="0px"
	 viewBox="0 0 512 512" enable-background="new 0 0 512 512" xml:space="preserve">
<g id="remove-circle-outline_1_">
	<path fill="#010101" d="M128,224.4v63.2h256v-63.2L128,224.4z M258.1,0C117.3,0,0,115.2,0,256s115.2,256,256,256s256-115.2,256-256
		S398.9,0,258.1,0z M258.1,460.8c-113.1,0-204.8-91.7-204.8-204.8S145.1,51.2,258.1,51.2S462.9,142.9,462.9,256
		S371.2,460.8,258.1,460.8z"/>
</g>
</svg>
